neru-light-classic/32x32/apps/fern-wifi-cracker.svg

<?xml version="1.0" encoding="UTF-8" standalone="no"?>
<svg
   xmlns:dc="http://purl.org/dc/elements/1.1/"
   xmlns:cc="http://creativecommons.org/ns#"
   xmlns:rdf="http://www.w3.org/1999/02/22-rdf-syntax-ns#"
   xmlns:svg="http://www.w3.org/2000/svg"
   xmlns="http://www.w3.org/2000/svg"
   xmlns:sodipodi="http://sodipodi.sourceforge.net/DTD/sodipodi-0.dtd"
   xmlns:inkscape="http://www.inkscape.org/namespaces/inkscape"
   width="32"
   height="32"
   version="1.1"
   viewBox="0 0 32 32"
   id="svg18"
   sodipodi:docname="fern-wifi-cracker.svg"
   inkscape:version="0.92.1 r">
  <metadata
     id="metadata24">
    <rdf:RDF>
      <cc:Work
         rdf:about="">
        <dc:format>image/svg+xml</dc:format>
        <dc:type
           rdf:resource="http://purl.org/dc/dcmitype/StillImage" />
      </cc:Work>
    </rdf:RDF>
  </metadata>
  <defs
     id="defs22" />
  <sodipodi:namedview
     pagecolor="#ffffff"
     bordercolor="#666666"
     borderopacity="1"
     objecttolerance="10"
     gridtolerance="10"
     guidetolerance="10"
     inkscape:pageopacity="0"
     inkscape:pageshadow="2"
     inkscape:window-width="640"
     inkscape:window-height="480"
     id="namedview20"
     showgrid="false"
     inkscape:zoom="8.9375"
     inkscape:cx="-5.2587413"
     inkscape:cy="16"
     inkscape:current-layer="svg18" />
  <rect
     style="opacity:1;fill:#afba0d;fill-opacity:1;fill-rule:evenodd;stroke:none;stroke-width:1.03534329;stroke-linecap:round;stroke-linejoin:bevel;stroke-miterlimit:4;stroke-dasharray:none;stroke-dashoffset:0;stroke-opacity:1"
     id="rect4497-3"
     width="28.203388"
     height="28.203388"
     x="1.8983059"
     y="1.8983059"
     ry="5.575182" />
  <path
     style="fill:#3f3f3f"
     d="M 20.470703,4.5292956 19.574219,6.3222643 A 8,8 0 0 1 24,13.470702 8,8 0 0 1 19.576172,20.623046 l 0.890625,1.78125 A 10,10 0 0 0 26,13.470702 10,10 0 0 0 20.470703,4.5292956 Z m -8.9375,0.00781 A 10,10 0 0 0 6,13.4707 a 10,10 0 0 0 5.529297,8.941406 l 0.896484,-1.792968 A 8,8 0 0 1 8,13.4707 8,8 0 0 1 12.423828,6.3183556 Z m 7.148438,3.5683598 -0.894532,1.791015 A 4,4 0 0 1 20,13.4707 4,4 0 0 1 17.789062,17.046872 l 0.890626,1.783203 A 6,6 0 0 0 22,13.4707 6,6 0 0 0 18.681641,8.1054654 Z m -5.361329,0.00586 A 6,6 0 0 0 10,13.470701 6,6 0 0 0 13.318359,18.835935 L 14.212891,17.04492 A 4,4 0 0 1 12,13.470701 4,4 0 0 1 14.210938,9.8945284 Z M 16,11.4707 a 2,2 0 0 0 -2,2.000001 2,2 0 0 0 1,1.730469 v 12.177734 a 10,15.294114 0 0 0 1,0.0918 10,15.294114 0 0 0 1,-0.07617 V 15.199218 a 2,2 0 0 0 1,-1.728516 2,2 0 0 0 -2,-2 z"
     id="path8"
     inkscape:connector-curvature="0" />
</svg>

<svg xmlns="http://www.w3.org/2000/svg" width="32" height="32"><rect width="28.203" height="28.203" x="1.898" y="1.898" ry="5.575" fill="#afba0d" fill-rule="evenodd"/><path d="M20.47 4.53l-.896 1.792A8 8 0 0 1 24 13.471a8 8 0 0 1-4.424 7.152l.89 1.781A10 10 0 0 0 26 13.471a10 10 0 0 0-5.53-8.942zm-8.937.007A10 10 0 0 0 6 13.471a10 10 0 0 0 5.53 8.941l.896-1.793A8 8 0 0 1 8 13.471a8 8 0 0 1 4.424-7.153zm7.149 3.568l-.895 1.791A4 4 0 0 1 20 13.471a4 4 0 0 1-2.21 3.576l.89 1.783A6 6 0 0 0 22 13.47a6 6 0 0 0-3.318-5.365zm-5.362.006a6 6 0 0 0-3.32 5.36 6 6 0 0 0 3.318 5.365l.895-1.791A4 4 0 0 1 12 13.47a4 4 0 0 1 2.21-3.576zm2.68 3.36a2 2 0 0 0-2 2 2 2 0 0 0 1 1.73V27.38a10 15.294 0 0 0 1 .092 10 15.294 0 0 0 1-.076V15.199a2 2 0 0 0 1-1.728 2 2 0 0 0-2-2z" fill="#3f3f3f"/></svg>
